packages/ffe-icons/icons/filled/lg/live_tv.svg

<svg xmlns="http://www.w3.org/2000/svg" height="40" viewBox="0 -960 960 960" width="40"><path d="m435.256-391.129 163.82-105.102q13.154-8.626 13.154-23.787t-13.154-23.751l-163.82-105.102q-14.23-9.59-28.999-1.225-14.769 8.365-14.769 25.455v209.282q0 17.09 14.769 25.455 14.769 8.365 28.999-1.225ZM162.565-220.001q-25.788 0-44.176-18.388t-18.388-44.176v-474.87q0-25.788 18.388-44.176t44.176-18.388h634.87q25.788 0 44.176 18.388t18.388 44.176v474.87q0 25.788-18.388 44.176t-44.176 18.388H615.127v48.718q0 13.557-8.862 22.419-8.862 8.863-22.42 8.863h-207.69q-13.558 0-22.42-8.863-8.862-8.862-8.862-22.419v-48.718H162.565Z"/></svg>

<svg xmlns="http://www.w3.org/2000/svg" viewBox="0 -960 960 960" width="32" height="32"><path d="m435.26-391.13 163.82-105.1q13.15-8.63 13.15-23.79 0-15.16-13.15-23.75l-163.82-105.1q-14.23-9.59-29-1.23-14.77 8.37-14.77 25.46v209.28q0 17.09 14.77 25.46 14.77 8.36 29-1.23ZM162.57-220q-25.79 0-44.18-18.39T100-282.57v-474.86q0-25.79 18.39-44.18T162.57-820h634.86q25.79 0 44.18 18.39T860-757.43v474.86q0 25.79-18.39 44.18T797.43-220h-182.3v48.72q0 13.55-8.87 22.42-8.86 8.86-22.42 8.86H376.16q-13.56 0-22.42-8.86-8.87-8.87-8.87-22.42V-220h-182.3Z"/></svg>
